X:26
T: (Saratoga)
M:4/4
K:D
de |: fd (3ded B2 AG | FADF Ecde  |  fd (3ded B2 AG | FABc d2 de | \
fd (3ded B2 AG | FADF Ecde  |  fd (3ded B2 AG | FABc d2 z2 :| \
dB |: AF (3FFF AFdB | AFDF EcdB | AF (3FFF AFdB | AFEC D2 dB | \
AF (3FFF AFdB | AFDF EcdB | AF (3FFF AFdB | AFEC D2 z2 :: \
Acec (3BcB AA | Acec (3BcB AA | Acec (3BcB AA | BABc d2 z B | \
Acec (3BcB AA | Acec (3BcB AA | Acec (3BcB AA | BABc d2 z2 :| \
Acec (3BcB AA | Acec a3 A | Acec (3BcB AA | BABc d2 z B | \
Acec (3BcB AA | Acec a3 A | Acec afed | cABc d2 z2 :|
